app/component-library/components/Icons/Icon/assets/login.svg

<svg width="24" height="24" viewBox="0 0 24 24" fill="none" xmlns="http://www.w3.org/2000/svg">
<path d="M9.18115 7.56023C9.49115 3.96023 11.3412 2.49023 15.3912 2.49023H15.5212C19.9912 2.49023 21.7812 4.28023 21.7812 8.75023V15.2702C21.7812 19.7402 19.9912 21.5302 15.5212 21.5302H15.3912C11.3712 21.5302 9.52115 20.0802 9.19115 16.5402M2.28076 12H15.1608M12.9312 8.6499L16.2812 11.9999L12.9312 15.3499" stroke="currentColor" stroke-width="1.5" stroke-linecap="round" stroke-linejoin="round"/>
</svg>

<svg xmlns="http://www.w3.org/2000/svg" width="24" height="24" viewBox="0 0 24 24" fill="none"><path d="M9.181 7.56c.31-3.6 2.16-5.07 6.21-5.07h.13c4.47 0 6.26 1.79 6.26 6.26v6.52c0 4.47-1.79 6.26-6.26 6.26h-.13c-4.02 0-5.87-1.45-6.2-4.99M2.281 12h12.88m-2.23-3.35 3.35 3.35-3.35 3.35" stroke="currentColor" stroke-width="1.5" stroke-linecap="round" stroke-linejoin="round"/></svg>
